src/icons/editor/glyph/TitlecaseIcon.svg

<svg width="24" height="24" viewBox="0 0 24 24" fill="none" xmlns="http://www.w3.org/2000/svg">
<path d="M8.82617 8.51074L5.98926 16.9531H4L7.71875 7H8.99023L8.82617 8.51074ZM11.1982 16.9531L8.34766 8.51074L8.17676 7H9.45508L13.1943 16.9531H11.1982ZM11.0684 13.2549V14.7383H5.72949V13.2549H11.0684Z" fill="currentColor"/>
<path d="M18.7861 9.55664H20.4268V16.7275C20.4268 17.3975 20.2809 17.9648 19.9893 18.4297C19.7021 18.8991 19.2988 19.2546 18.7793 19.4961C18.2598 19.7422 17.6559 19.8652 16.9678 19.8652C16.6715 19.8652 16.3503 19.8242 16.0039 19.7422C15.6621 19.6602 15.3317 19.5303 15.0127 19.3525C14.6982 19.1794 14.4362 18.9538 14.2266 18.6758L15.04 17.6094C15.2861 17.8965 15.5641 18.113 15.874 18.2588C16.1839 18.4092 16.5189 18.4844 16.8789 18.4844C17.2435 18.4844 17.5534 18.416 17.8086 18.2793C18.0684 18.1471 18.2666 17.9512 18.4033 17.6914C18.5446 17.4362 18.6152 17.1217 18.6152 16.748V11.2451L18.7861 9.55664ZM13.7891 13.3438V13.2002C13.7891 12.6351 13.8574 12.1224 13.9941 11.6621C14.1309 11.1973 14.3268 10.7985 14.582 10.4658C14.8418 10.1331 15.154 9.87565 15.5186 9.69336C15.8877 9.51107 16.3024 9.41992 16.7627 9.41992C17.2503 9.41992 17.6605 9.50879 17.9932 9.68652C18.3304 9.86426 18.6084 10.1172 18.8271 10.4453C19.0505 10.7734 19.2236 11.1631 19.3467 11.6143C19.4743 12.0609 19.5723 12.5531 19.6406 13.0908V13.4805C19.5768 14.0046 19.4743 14.4854 19.333 14.9229C19.1963 15.3604 19.014 15.7432 18.7861 16.0713C18.5583 16.3949 18.2757 16.6455 17.9385 16.8232C17.6012 17.001 17.2048 17.0898 16.749 17.0898C16.2933 17.0898 15.8831 16.9964 15.5186 16.8096C15.154 16.6227 14.8418 16.3607 14.582 16.0234C14.3268 15.6862 14.1309 15.2897 13.9941 14.834C13.8574 14.3783 13.7891 13.8815 13.7891 13.3438ZM15.5938 13.2002V13.3438C15.5938 13.6628 15.6257 13.9613 15.6895 14.2393C15.7533 14.5173 15.8512 14.7633 15.9834 14.9775C16.1156 15.1872 16.2819 15.3512 16.4824 15.4697C16.6829 15.5882 16.9222 15.6475 17.2002 15.6475C17.5739 15.6475 17.8792 15.57 18.1162 15.415C18.3577 15.2555 18.54 15.0391 18.6631 14.7656C18.7907 14.4876 18.8727 14.1755 18.9092 13.8291V12.7559C18.8864 12.4824 18.8363 12.2295 18.7588 11.9971C18.6859 11.7646 18.5833 11.5641 18.4512 11.3955C18.319 11.2269 18.1504 11.0947 17.9453 10.999C17.7402 10.9033 17.4964 10.8555 17.2139 10.8555C16.9404 10.8555 16.7012 10.917 16.4961 11.04C16.291 11.1585 16.1224 11.3249 15.9902 11.5391C15.8581 11.7533 15.7578 12.0016 15.6895 12.2842C15.6257 12.5667 15.5938 12.8721 15.5938 13.2002Z" fill="currentColor"/>
</svg>

<svg xmlns="http://www.w3.org/2000/svg" width="24" height="24" fill="currentColor" viewBox="0 0 24 24">
  <path d="M8.826 8.51 5.99 16.954H4L7.719 7H8.99l-.164 1.51Zm2.372 8.443-2.85-8.442L8.177 7h1.278l3.74 9.953h-1.997Zm-.13-3.698v1.483H5.73v-1.483h5.34Zm7.718-3.698h1.64v7.17c0 .67-.145 1.238-.437 1.703a2.72 2.72 0 0 1-1.21 1.066c-.52.246-1.123.37-1.811.37-.296 0-.618-.042-.964-.124a3.896 3.896 0 0 1-.991-.39 2.452 2.452 0 0 1-.786-.676l.813-1.067c.246.287.524.504.834.65.31.15.645.225 1.005.225.364 0 .674-.068.93-.205a1.34 1.34 0 0 0 .594-.588c.142-.255.212-.57.212-.943v-5.503l.171-1.688Zm-4.997 3.787V13.2c0-.565.068-1.078.205-1.538.137-.465.333-.864.588-1.196.26-.333.572-.59.937-.773a2.772 2.772 0 0 1 1.244-.273c.487 0 .897.089 1.23.267.337.177.615.43.834.758.223.328.397.718.52 1.17.127.446.225.938.294 1.476v.39a7.733 7.733 0 0 1-.308 1.442c-.137.437-.319.82-.547 1.148-.228.324-.51.574-.848.752-.337.178-.733.267-1.189.267-.456 0-.866-.094-1.23-.28a2.764 2.764 0 0 1-.937-.787 3.725 3.725 0 0 1-.588-1.189 5.167 5.167 0 0 1-.205-1.49Zm1.805-.144v.144c0 .319.032.617.096.895.063.278.161.524.293.738.133.21.299.374.5.493.2.118.44.178.717.178.374 0 .68-.078.916-.233.242-.16.424-.376.547-.65.128-.277.21-.59.246-.936v-1.073a3.245 3.245 0 0 0-.15-.759 1.874 1.874 0 0 0-.308-.601c-.132-.17-.3-.301-.506-.397a1.717 1.717 0 0 0-.731-.144c-.274 0-.513.062-.718.185a1.433 1.433 0 0 0-.506.5 2.551 2.551 0 0 0-.3.744 4.155 4.155 0 0 0-.096.916Z"/>
</svg>
